packages/foundations/assets/icons/functional/images/business & payment/ticket.svg

<svg xmlns="http://www.w3.org/2000/svg" width="32" height="32" fill="none"><path fill="#1A1C1F" fill-rule="evenodd" d="M8.22 2.111c-.677.182-1.359.683-1.747 1.285a4 4 0 0 0-.325.693L6 4.507v22.986l.148.418c.342.967.974 1.599 1.941 1.941l.418.148h14.986l.418-.148c.967-.342 1.599-.974 1.941-1.941l.148-.418V4.507l-.148-.418c-.354-1.001-1.122-1.727-2.095-1.981-.458-.119-15.093-.117-15.537.003m15.304 2.045c.105.071.249.215.32.32l.129.191v22.666l-.13.193c-.072.106-.214.25-.316.32l-.186.127H8.659l-.186-.127a1.5 1.5 0 0 1-.316-.32l-.13-.193V4.659l.131-.191c.127-.187.348-.353.562-.423.059-.019 3.371-.031 7.36-.027l7.253.009zm-13.044 18c-.519.312-.627 1.092-.211 1.526.263.275.507.331 1.348.31.741-.019.748-.02.951-.182.113-.089.261-.269.329-.4.233-.446.038-1.045-.415-1.276-.184-.093-.313-.107-1-.107-.738.001-.802.009-1.002.129m4.564-.036a1.3 1.3 0 0 0-.347.298c-.146.183-.163.243-.163.564-.001.3.023.394.142.575.24.362.481.443 1.324.443s1.084-.081 1.324-.443c.119-.181.143-.275.142-.575 0-.321-.017-.381-.163-.564-.278-.348-.423-.391-1.303-.391-.631 0-.807.017-.956.093m4.463.017c-.264.139-.463.448-.499.775-.036.325.121.657.424.898.203.162.21.163.951.182.594.015.794.001.973-.068.768-.293.857-1.38.146-1.779-.191-.108-.281-.118-1.003-.116-.684.002-.82.017-.992.108"/></svg>

<svg width="32" height="32" viewBox="0 0 32 32" fill="none" xmlns="http://www.w3.org/2000/svg"><path d="M8.220 2.111 C 7.543 2.293,6.861 2.794,6.473 3.396 C 6.375 3.548,6.229 3.860,6.148 4.089 L 6.000 4.507 6.000 16.000 L 6.000 27.493 6.148 27.911 C 6.490 28.878,7.122 29.510,8.089 29.852 L 8.507 30.000 16.000 30.000 L 23.493 30.000 23.911 29.852 C 24.878 29.510,25.510 28.878,25.852 27.911 L 26.000 27.493 26.000 16.000 L 26.000 4.507 25.852 4.089 C 25.498 3.088,24.730 2.362,23.757 2.108 C 23.299 1.989,8.664 1.991,8.220 2.111 M23.524 4.156 C 23.629 4.227,23.773 4.371,23.844 4.476 L 23.973 4.667 23.973 16.000 L 23.973 27.333 23.843 27.526 C 23.771 27.632,23.629 27.776,23.527 27.846 L 23.341 27.973 16.000 27.973 L 8.659 27.973 8.473 27.846 C 8.371 27.776,8.229 27.632,8.157 27.526 L 8.027 27.333 8.027 15.996 L 8.027 4.659 8.158 4.468 C 8.285 4.281,8.506 4.115,8.720 4.045 C 8.779 4.026,12.091 4.014,16.080 4.018 L 23.333 4.027 23.524 4.156 M10.480 22.156 C 9.961 22.468,9.853 23.248,10.269 23.682 C 10.532 23.957,10.776 24.013,11.617 23.992 C 12.358 23.973,12.365 23.972,12.568 23.810 C 12.681 23.721,12.829 23.541,12.897 23.410 C 13.130 22.964,12.935 22.365,12.482 22.134 C 12.298 22.041,12.169 22.027,11.482 22.027 C 10.744 22.028,10.680 22.036,10.480 22.156 M15.044 22.120 C 14.943 22.171,14.787 22.305,14.697 22.418 C 14.551 22.601,14.534 22.661,14.534 22.982 C 14.533 23.282,14.557 23.376,14.676 23.557 C 14.916 23.919,15.157 24.000,16.000 24.000 C 16.843 24.000,17.084 23.919,17.324 23.557 C 17.443 23.376,17.467 23.282,17.466 22.982 C 17.466 22.661,17.449 22.601,17.303 22.418 C 17.025 22.070,16.880 22.027,16.000 22.027 C 15.369 22.027,15.193 22.044,15.044 22.120 M19.507 22.137 C 19.243 22.276,19.044 22.585,19.008 22.912 C 18.972 23.237,19.129 23.569,19.432 23.810 C 19.635 23.972,19.642 23.973,20.383 23.992 C 20.977 24.007,21.177 23.993,21.356 23.924 C 22.124 23.631,22.213 22.544,21.502 22.145 C 21.311 22.037,21.221 22.027,20.499 22.029 C 19.815 22.031,19.679 22.046,19.507 22.137 " fill="#1A1C1F" stroke="none" fill-rule="evenodd"></path></svg>
